frontend/public/svg/misc/bot.svg

<svg width="164" height="125" viewBox="0 0 164 125" fill="none" xmlns="http://www.w3.org/2000/svg">
<path d="M19.2329 89.0831C17.3341 89.4211 15.7432 89.7559 14.1371 89.9817C7.06966 90.976 1.51901 86.5687 0.48068 79.5288C-1.0289 69.307 6.73229 58.1139 14.141 55.0389C16.6482 53.9986 19.5794 53.9795 23.0364 53.3665C32.2494 32.1615 49.7618 21.7934 73.5423 20.3488C73.8921 16.4462 74.238 12.5935 74.6022 8.54059C73.5751 8.11988 72.3431 7.95977 71.6796 7.26077C70.7134 6.24344 69.5996 4.84016 69.5957 3.59771C69.5918 2.53116 70.9221 0.709891 71.8974 0.535306C74.597 0.0535535 77.542 -0.276629 80.1608 0.325233C83.5048 1.0938 83.9852 3.75262 81.8548 6.48561C81.4171 6.9389 81.1341 7.51899 81.0462 8.14288C81.224 11.6156 81.5273 15.081 81.7616 18.179C88.0211 18.7375 94.0055 19.0381 99.9211 19.8421C119.273 22.472 132.088 33.3508 139.077 51.3896C139.194 51.6909 139.333 51.9849 139.478 52.2744C139.549 52.3747 139.633 52.4656 139.727 52.5448C142.943 52.5448 146.247 52.1103 149.393 52.6347C156.138 53.7583 161.178 57.4004 162.853 64.3477C164.528 71.2951 161.862 77.0616 156.759 81.6435C151.742 86.1493 145.621 87.389 138.993 86.5404C138.746 86.7453 138.532 86.987 138.359 87.2571C130.949 104.691 117.203 114.915 99.7662 120.658C84.6227 125.684 68.3154 126.026 52.9746 121.639C36.0424 116.958 23.8017 107.182 19.2329 89.0831ZM74.3653 116.033C77.9548 115.728 81.5686 115.59 85.1292 115.09C99.4118 113.083 112.05 107.628 121.744 96.6153C138.759 77.2881 134.524 42.1123 104.846 32.3558C93.8566 28.746 82.3857 26.5243 70.7233 27.2725C57.6687 28.1106 46.2832 33.0968 37.8617 43.4256C30.0513 53.0022 26.6062 64.3694 26.3233 76.5471C25.9125 94.2223 34.5276 106.232 51.1808 112.095C58.6448 114.649 66.4731 115.979 74.362 116.032L74.3653 116.033ZM20.0205 60.3756C19.7421 60.3376 19.4597 60.3412 19.1824 60.3861C12.7641 62.2757 6.45466 73.2929 8.09026 79.6823C8.58579 81.6199 9.81316 82.7712 11.7592 82.8092C13.8765 82.8512 16.0005 82.5894 17.5501 82.4949C18.4092 74.7881 19.2099 67.6156 20.0185 60.3742L20.0205 60.3756ZM141.736 77.21C145.278 77.15 148.678 75.8064 151.305 73.4289C154.874 70.1905 155.296 65.2817 152.224 62.4522C149.242 59.7061 145.667 58.9152 141.736 59.7146V77.21Z" fill="black"/>
<path d="M84.8075 82.0252C86.4018 82.3193 88.1725 82.2825 89.5331 83.0097C90.1516 83.3495 90.6946 83.8115 91.129 84.3676C91.5634 84.9238 91.8802 85.5624 92.06 86.2448C92.3344 88.1095 90.7172 89.0671 88.9411 89.2994C88.0814 89.4143 87.2076 89.3635 86.367 89.1498C84.8505 88.6937 83.2428 88.6309 81.6954 88.9674C80.148 89.304 78.7116 90.0287 77.5215 91.0734C76.1714 92.182 74.5896 93.0209 73.233 91.3781C72.0319 89.9236 72.5832 88.2348 73.7817 86.9346C75.1549 85.3673 76.8518 84.1166 78.7554 83.269C80.659 82.4214 82.7239 81.9971 84.8075 82.0252Z" fill="black"/>
<path d="M57.7186 52.5112C61.4295 52.6392 63.7503 55.2876 63.5495 59.1645C63.3893 62.2533 60.9084 64.7434 58.1203 64.6154C54.9698 64.4703 52.4724 61.3206 52.607 57.6582C52.7442 53.9453 54.2853 52.3924 57.7186 52.5112Z" fill="black"/>
<path d="M93.575 57.3327C93.5684 54.2361 94.7564 52.8328 97.4244 52.7856C100.873 52.7245 103.039 54.689 102.96 57.8066C102.891 60.4916 100.78 62.7678 98.3 62.8282C95.4672 62.8971 93.5822 60.7024 93.575 57.3327Z" fill="black"/>
</svg>

<svg xmlns="http://www.w3.org/2000/svg" width="164" height="125" fill="none" viewBox="0 0 164 125"><path fill="#000" d="M19.233 89.083c-1.899.338-3.49.673-5.096.899C7.07 90.976 1.52 86.569.481 79.529c-1.51-10.222 6.251-21.415 13.66-24.49 2.507-1.04 5.438-1.06 8.895-1.672 9.213-21.205 26.726-31.574 50.506-33.018l1.06-11.808c-1.027-.421-2.259-.581-2.922-1.28-.967-1.018-2.08-2.42-2.084-3.663C69.592 2.53 70.922.71 71.897.535c2.7-.481 5.645-.812 8.264-.21 3.344.769 3.824 3.428 1.694 6.16a3 3 0 0 0-.809 1.658c.178 3.473.481 6.938.716 10.036 6.26.559 12.243.86 18.16 1.663 19.351 2.63 32.166 13.509 39.155 31.548.117.3.256.595.401.884q.107.151.249.27c3.216 0 6.52-.434 9.666.09 6.745 1.124 11.785 4.766 13.46 11.714 1.675 6.947-.991 12.714-6.094 17.296-5.017 4.505-11.138 5.745-17.766 4.896a3.1 3.1 0 0 0-.634.717c-7.41 17.434-21.156 27.658-38.593 33.401a79.3 79.3 0 0 1-46.791.981c-16.933-4.681-29.173-14.457-33.742-32.556m55.132 26.95c3.59-.305 7.204-.443 10.764-.943 14.283-2.007 26.921-7.462 36.615-18.475 17.015-19.327 12.78-54.503-16.898-64.26-10.99-3.609-22.46-5.83-34.123-5.082-13.054.838-24.44 5.824-32.861 16.153-7.81 9.576-11.256 20.943-11.539 33.121-.41 17.675 8.205 29.685 24.858 35.548a73.1 73.1 0 0 0 23.181 3.937zM20.021 60.376a2.8 2.8 0 0 0-.839.01C12.764 62.276 6.455 73.293 8.09 79.682c.496 1.938 1.723 3.09 3.67 3.127 2.117.042 4.24-.22 5.79-.314l2.468-22.12zM141.736 77.21a14.63 14.63 0 0 0 9.569-3.781c3.569-3.239 3.991-8.147.919-10.977-2.982-2.746-6.557-3.537-10.488-2.737z"/><path fill="#000" d="M84.808 82.025c1.594.294 3.364.257 4.725.985a5.2 5.2 0 0 1 2.527 3.235c.274 1.864-1.343 2.822-3.119 3.054a6.8 6.8 0 0 1-2.574-.15 9.33 9.33 0 0 0-8.846 1.924c-1.35 1.109-2.931 1.948-4.288.305-1.201-1.454-.65-3.143.549-4.443a14.4 14.4 0 0 1 11.026-4.91M57.719 52.511c3.71.128 6.031 2.777 5.83 6.653-.16 3.09-2.64 5.58-5.429 5.451-3.15-.145-5.648-3.294-5.513-6.957.137-3.713 1.678-5.266 5.112-5.147m35.856 4.822c-.007-3.097 1.181-4.5 3.85-4.547 3.448-.062 5.614 1.903 5.535 5.02-.069 2.686-2.18 4.962-4.66 5.022-2.833.07-4.718-2.126-4.725-5.495"/></svg>
